!!!SOCIAL_FUNCTION:	songs of war
!!!PDT:	1918

Specific Region: Dakotas, Minnesota, Montana, Nebraska
!!!REG: Dakotas and Montana
!!!LING_GROUP: Siouan
!!!LANG: Tone
!!!OTL@ENG: The Earth Only Endures
!!!ONM: No. 142
**kern
*Imale
*clefF4
*M2/4
*MM63
16c
=1
8.e
16c
8.e
16c
=2
4c
4c
=3
4A
8.A
16A
=4
8.e
16c
8.e
16c
=5||
*M3/4
4c
2c
=6
4c
4..c
16e
=7
8.e
16c
4c
8.A
16e
=8
4c
4.c
8A
=9||
*M2/4
8.c
16A
4E
=10||
*M3/4
8.E
16D
4C
4AA
=11
4C
8C
16C
16C
8.C
16E
=12
12E
12D
12C
12D
12C
12C
4AA
=13||
*M2/4
2AA
=14||
*M3/4
2AA
8.A
16c
=15
8.c
16c
8.c
16e
(8.e
16c)
=16||
*M2/4
4c
8.A
16e
=17
8c
16c
16c
8c
8A
=18
8c
16A
16A
16E
16D
16.E
32D
=19
4C
4AA
=20||
*M3/4
8C
8C
4C
8.C
16E
=21
(12E
12D)
12C
(12D
12C)
12C
4AA
=22||
*M2/4
2AA
=23
2AA
==
*-
!!!CNT: Native American -- Sioux
!!!MRD: 1911/07//-1914///
!!!OCL: Frances Densmore
!!!YOR1: Teton Sioux Music, Bulletin 61,
!!!YOR2: Bureau of American Ethnology, Smithsonian Institution
!!!PPR: Government Printing Office
!!!PPP: Washington, D.C.
!!!PDT: 1918///
!!!ENC: Craig Stuart Sapp
!!!END: 2002/03/25/
!!!EEV: 2002/03/31/
!!!AGN: War Song/Song of a Typical War Expedition
!!!MPN@@SIO: Waha'changka-ya'pi
!!!MPN@ENG: Used-as-a-Shield
!!!TXO: Teton Sioux
!!!MLC: Standing Rock Reservation, South Dakota, United States of America
!!!ARL: 45.9/-100.7#
!!!catalog: Catalogue No. 617
!!!PPG: 357
!!!EFL: 146/245
!!!VTS: 3425135033
